priv/static/images/frameworks/node.svg

<svg xmlns="http://www.w3.org/2000/svg" width="128" height="128" fill="none"><path fill="#83CD29" d="M112.771 30.334 68.674 4.729c-2.781-1.584-6.402-1.584-9.205 0L14.901 30.334C12.031 31.985 10 35.088 10 38.407v51.142c0 3.319 2.084 6.423 4.954 8.083l11.775 6.688c5.628 2.772 7.617 2.772 10.178 2.772 8.333 0 13.093-5.039 13.093-13.828v-50.49c0-.713-.371-1.774-1.071-1.774h-5.623C42.594 41 41 42.061 41 42.773v50.49c0 3.896-3.524 7.773-10.11 4.48L18.723 90.73c-.424-.23-.723-.693-.723-1.181V38.407c0-.482.555-.966.982-1.213l44.424-25.561c.415-.235 1.025-.235 1.439 0l43.882 25.555c.42.253.272.722.272 1.219v51.142c0 .488.183.963-.232 1.198l-44.086 25.576c-.378.227-.847.227-1.261 0l-11.307-6.749c-.341-.198-.746-.269-1.073-.086-3.146 1.783-3.726 2.02-6.677 3.043-.726.253-1.797.692.41 1.929l14.798 8.754a9.3 9.3 0 0 0 4.647 1.246c1.642 0 3.25-.426 4.667-1.246l43.885-25.582c2.87-1.672 4.23-4.764 4.23-8.083V38.407c0-3.319-1.36-6.414-4.229-8.073M77.91 81.445c-11.726 0-14.309-3.235-15.17-9.066-.1-.628-.633-1.379-1.272-1.379h-5.731c-.709 0-1.279.86-1.279 1.566 0 7.466 4.059 16.512 23.453 16.512 14.039 0 22.088-5.455 22.088-15.109 0-9.572-6.467-12.084-20.082-13.886-13.762-1.819-15.16-2.738-15.16-5.962 0-2.658 1.184-6.203 11.374-6.203 9.105 0 12.461 1.954 13.842 8.091.118.577.645.991 1.24.991h5.754c.354 0 .692-.143.94-.396.24-.272.367-.613.335-.979-.891-10.568-7.912-15.493-22.112-15.493-12.631 0-20.166 5.334-20.166 14.275 0 9.698 7.497 12.378 19.622 13.577 14.505 1.422 15.633 3.542 15.633 6.395 0 4.955-3.978 7.066-13.309 7.066"/></svg>

<svg
  width="128"
  height="128"
  viewBox="0 0 128 128"
  fill="none"
  xmlns="http://www.w3.org/2000/svg"
>
  <path
    d="M112.771 30.334L68.674 4.72902C65.893 3.14502 62.272 3.14502 59.469 4.72902L14.901 30.334C12.031 31.985 10 35.088 10 38.407V89.549C10 92.868 12.084 95.972 14.954 97.632L26.729 104.32C32.357 107.092 34.346 107.092 36.907 107.092C45.24 107.092 50 102.053 50 93.264V42.774C50 42.061 49.629 41 48.929 41H43.306C42.594 41 41 42.061 41 42.773V93.263C41 97.159 37.476 101.036 30.89 97.743L18.723 90.73C18.299 90.5 18 90.037 18 89.549V38.407C18 37.925 18.555 37.441 18.982 37.194L63.406 11.633C63.821 11.398 64.431 11.398 64.845 11.633L108.727 37.188C109.147 37.441 108.999 37.91 108.999 38.407V89.549C108.999 90.037 109.182 90.512 108.767 90.747L64.681 116.323C64.303 116.55 63.834 116.55 63.42 116.323L52.113 109.574C51.772 109.376 51.367 109.305 51.04 109.488C47.894 111.271 47.314 111.508 44.363 112.531C43.637 112.784 42.566 113.223 44.773 114.46L59.571 123.214C60.9838 124.03 62.5865 124.46 64.218 124.46C65.86 124.46 67.468 124.034 68.885 123.214L112.77 97.632C115.64 95.96 117 92.868 117 89.549V38.407C117 35.088 115.64 31.993 112.771 30.334ZM77.91 81.445C66.184 81.445 63.601 78.21 62.74 72.379C62.64 71.751 62.107 71 61.468 71H55.737C55.028 71 54.458 71.86 54.458 72.566C54.458 80.032 58.517 89.078 77.911 89.078C91.95 89.078 99.999 83.623 99.999 73.969C99.999 64.397 93.532 61.885 79.917 60.083C66.155 58.264 64.757 57.345 64.757 54.121C64.757 51.463 65.941 47.918 76.131 47.918C85.236 47.918 88.592 49.872 89.973 56.009C90.091 56.586 90.618 57 91.213 57H96.967C97.321 57 97.659 56.857 97.907 56.604C98.147 56.332 98.274 55.991 98.242 55.625C97.351 45.057 90.33 40.132 76.13 40.132C63.499 40.132 55.964 45.466 55.964 54.407C55.964 64.105 63.461 66.785 75.586 67.984C90.091 69.406 91.219 71.526 91.219 74.379C91.219 79.334 87.241 81.445 77.91 81.445Z"
    fill="#83CD29"
  />
</svg>
